packages/gestalt-icons-android/vr-theme/ic_vr_graph-bar_gestalt.svg

<svg width="24" height="24" viewBox="0 0 24 24" fill="none" xmlns="http://www.w3.org/2000/svg">
<path fill-rule="evenodd" clip-rule="evenodd" d="M9 3C9 1.89543 9.89543 1 11 1H13C14.1046 1 15 1.89543 15 3V21C15 22.1046 14.1046 23 13 23H11C9.89543 23 9 22.1046 9 21V3ZM13 3L11 3V21H13V3ZM17 9C17 7.89543 17.8954 7 19 7H21C22.1046 7 23 7.89543 23 9V21C23 22.1046 22.1046 23 21 23H19C17.8954 23 17 22.1046 17 21V9ZM21 9H19V21H21V9ZM1 13C1 11.8954 1.89543 11 3 11H5C6.10457 11 7 11.8954 7 13V21C7 22.1046 6.10457 23 5 23H3C1.89543 23 1 22.1046 1 21V13ZM5 13H3V21H5V13Z" fill="black"/>
</svg>

<svg xmlns="http://www.w3.org/2000/svg" width="24" height="24"><path d="M9 3c0-1.1.9-2 2-2h2a2 2 0 0 1 2 2v18a2 2 0 0 1-2 2h-2a2 2 0 0 1-2-2zm4 0h-2v18h2zm4 6c0-1.1.9-2 2-2h2a2 2 0 0 1 2 2v12a2 2 0 0 1-2 2h-2a2 2 0 0 1-2-2zm4 0h-2v12h2zM1 13c0-1.1.9-2 2-2h2a2 2 0 0 1 2 2v8a2 2 0 0 1-2 2H3a2 2 0 0 1-2-2zm4 0H3v8h2z"/></svg>
